!!!OTL: 600b. Vermahnung an den Geliebten.
!!!ODT: 1857
!!!ARE: Europa, Mitteleuropa, Deutschland, Schlesien, Neisse
!!!SCT: E0600A
!!!TXL: @@DE
!!!YEM: Copyright 1995, estate of Helmut Schaffrath.
**kern	**text
*ICvox	*
*M3/8	*
*k[f#c#]	*
*D:	*
=1	=1
!LO:TX:a:t=Langsam.	!
!LO:TX:a:t=Aus Neiße in Schleſien. 1857.	!
{8f#	1._Wenn
8e	ich
8f#	ʒum
=2	=2
8g	Thü-
8f#	-rel'
8g	naus
=3	=3
4a}	geh,
{8a	ſo
=4	=4
8a	ſchwing
8dd	ich
8f#	mein
=5	=5
8a	Hütchen
8g	in
8e	die
=6	=6
4f#	Höh.
8r}	.
=7	=7
{8a	Wenn_ich
8dd	ein
8f#	Stück
=8	=8
8a	wei-
8g	-ter
8e}	komm,
=9	=9
{8g	ſeh_ich
8b	mich
8e	ʒwei-
=10	=10
8g	-drei-
8f#	-mal
8d}	um,
=11	=11
{8f#	ſeh
8e	ich
8f#	mein
=12	=12
8g	Schätʒ-
8f#	-chen
8g	ſchon
=13	=13
4a}	ſtehn,
{8a	.
=14	=14
8a	wie
8dd	ei-
8f#	-ne
=15	=15
8a	Ro-
8g	-ſe
8e	ſo
=16	=16
4f#	ſchön.
8r}	.
==	==
!!!AGN: Liebes - Lied
!!!ONB: ESAC (Essen Associative Code) Database: ERK1
!!!AMT: simple triple
!!!AIN: vox
!!!EED: Helmut Schaffrath
!!!EEV: 1.0
!!!GTL: Liebeslieder [Neuere (aus dem 18. bis 19. Jahrh.) - Liebeslust]
!!!URL-scan: https://rosdok.uni-rostock.de/mcrviewer/recordIdentifier/rosdok_ppn745177662/iview2/phys_0425.iview2?x=-128.77276441889308&y=338.94933584262617&scale=0.5870222003877485&rotation=0&layout=singlePageLayout
!!!ENC: Anna Maria Matuszewska
!!!EEV: 2024/11/12
*-	*-
